X: 1
T: Cathal Hayden's version
M: 4/4
L: 1/8
R: reel
K: Amix
cd|eaa2 egg2|eaa2 ABcd|eaag efg2|afge d2:||
ed|c2 AG EFGA|EAA2 AB=cG|AB=cd edcd|eage d2:||
